apps/static/images/messenger_pigeon.svg

<svg width="489" height="138" viewBox="0 0 489 138" fill="none" xmlns="http://www.w3.org/2000/svg">
<path fill-rule="evenodd" clip-rule="evenodd" d="M28.161 104.46L190.875 73.2736C190.875 73.2736 200.156 67.5989 190.875 56.5075C181.595 45.4155 154.185 56.5075 154.185 56.5075C154.185 56.5075 149.834 34.5893 111.58 33.0375C73.3264 31.4864 50.1263 53.9271 64.0465 61.6661C64.0465 61.6661 24.1967 54.735 6.04564 77.6085C-12.1047 100.483 15.1675 106.95 28.161 104.46Z" fill="#A378F8" fill-opacity="0.27"/>
<path fill-rule="evenodd" clip-rule="evenodd" d="M322.162 137.46L484.875 106.273C484.875 106.273 494.156 100.598 484.875 89.5072C475.595 78.4153 448.185 89.5072 448.185 89.5072C448.185 89.5072 443.834 67.5893 405.58 66.0375C367.326 64.4864 344.126 86.9269 358.046 94.6658C358.046 94.6658 318.196 87.7347 300.046 110.609C281.895 133.483 309.167 139.951 322.162 137.46Z" fill="#A378F8" fill-opacity="0.27"/>
<path d="M195.04 61.8306L205.999 61.0455C209.717 63.7265 214.152 65.3295 218.721 65.8013C219.419 65.8733 219.412 64.7821 218.721 64.7109C213.308 64.1511 208.045 61.9033 204.122 58.086C203.785 57.7581 203.337 57.9966 203.223 58.3361C201.212 56.5012 199.021 53.9416 198.844 51.3812C198.844 51.3812 220.184 57.5182 228.619 56.0258L228.791 55.8644C235.51 63.2744 245.718 66.2557 255.454 66.7711C256.155 66.8082 256.152 65.7177 255.454 65.6806C245.601 65.1594 235.28 62.0618 228.771 54.2091C228.394 53.7547 227.805 54.228 227.883 54.7093C227.443 54.0833 227.294 53.7039 227.294 53.7039C227.294 53.7039 214.722 49.8095 212.24 46.4923C209.759 43.1752 217.535 42.5914 217.535 42.5914C217.535 42.5914 213.399 40.601 208.436 38.6106C203.473 36.6201 213.73 28.6591 213.73 28.6591C213.73 28.6591 204.797 28.3276 203.97 26.5029C203.143 24.6783 211.414 20.3659 211.414 20.3659C211.414 20.3659 196.03 18.044 197.85 15.0583C199.622 12.1504 211.589 12.8614 212.211 12.8999C229.536 16.0281 246.523 22.075 260.98 32.2874C261.555 32.6938 262.098 31.7473 261.529 31.346C246.33 20.608 228.313 14.4251 210.069 11.4206C209.778 11.3726 209.565 11.5369 209.46 11.747C191.709 4.18725 196.196 1.62324 196.196 1.62324C205.288 -5.07067 238.557 10.3737 258.441 21.8053C261.71 23.683 264.621 25.4547 266.997 27.0002C281.541 36.4544 290.155 41.9277 290.155 41.9277C291.644 42.0869 292.961 42.1604 294.131 42.1465C294.324 42.1531 294.515 42.1465 294.7 42.14C301.688 41.9081 303.673 38.3518 309.509 30.2316C316.126 21.0296 321.584 22.1906 321.584 22.1906C330.848 22.1906 338.954 33.801 338.954 33.801L332.668 43.7524C332.668 43.7524 327.718 50.0225 321.597 58.7861L321.584 58.7926V58.7992C318.202 63.6291 314.464 69.2151 310.996 74.9342C303.678 86.9953 290.868 92.8139 275.636 93C272.109 93.0524 268.444 92.8016 264.692 92.2433C263.05 92.0041 261.389 91.706 259.716 91.3542C257.42 90.8686 255.303 90.3655 253.35 89.8603C236.603 85.4948 232.092 80.5733 232.092 80.5733C232.092 80.5733 224.316 77.4211 216.542 80.4068C208.768 83.3924 208.106 85.0521 208.271 82.3972C208.43 79.823 211.229 77.7192 211.407 77.5949C211.136 77.7403 203.11 82.1057 201.324 83.1533C199.603 84.163 203.209 74.2886 208.499 71.5262C210.105 71.8904 211.747 72.0794 213.402 72.1012C214.104 72.1106 214.102 71.0202 213.402 71.0107C210.798 70.9766 208.247 70.5084 205.813 69.5764C205.601 69.495 205.435 69.5575 205.319 69.6775C201.518 68.1414 196.272 65.4335 195.04 61.8306ZM245.579 37.161C235.869 31.6397 225.585 28.4149 214.371 28.3625C213.669 28.3596 213.669 29.4501 214.371 29.453C225.405 29.5046 235.477 32.6698 245.031 38.1017C245.64 38.4499 246.188 37.5078 245.579 37.161ZM325.509 33.2688C325.959 34.5032 326.885 35.3058 327.58 35.0535C328.274 34.8013 328.473 33.5872 328.023 32.3536C327.58 31.1126 326.653 30.3166 325.958 30.5689C325.264 30.8204 325.059 32.0279 325.509 33.2688Z" fill="#536FE8"/>
<path fill-rule="evenodd" clip-rule="evenodd" d="M264.694 92.2426C265.422 94.9295 261.505 99.0158 260.228 100.264C260.228 100.264 260.228 100.264 260.222 100.271C260.083 100.349 258.164 101.458 254.975 99.7595C254.975 99.7595 258.005 98.1005 257.151 95.7786C257.151 95.7786 252.222 98.7701 246.485 97.2718C246.485 97.2718 253.393 93.4501 253.354 89.8611C255.305 90.3656 257.423 90.8694 259.719 91.355C261.392 91.7054 263.053 92.0035 264.694 92.2426Z" fill="#FFC762"/>
<path fill-rule="evenodd" clip-rule="evenodd" d="M259.149 15.3825C260.01 14.9514 260.824 14.838 260.824 14.838C260.824 14.838 258.395 12.6222 258.177 10.1941C257.952 7.75879 264.351 9.53041 264.351 9.53041C264.351 9.53041 251.442 -6.86996 268.322 3.55911C288.53 16.0389 293.44 38.4695 294.061 41.7474C286.615 37.2366 268.684 25.8515 259.149 15.3825Z" fill="#295FC5"/>
<path fill-rule="evenodd" clip-rule="evenodd" d="M266.997 26.9995C264.621 25.454 261.71 23.6823 258.441 21.8046C255.927 17.9102 257.614 16.1452 259.15 15.3826C268.684 25.8516 286.616 37.2366 294.06 41.7482C294.105 41.9736 294.126 42.1066 294.133 42.1458C292.963 42.1597 291.645 42.0862 290.157 41.927C290.155 41.927 281.54 36.4537 266.997 26.9995Z" fill="#403882"/>
<path fill-rule="evenodd" clip-rule="evenodd" d="M264.695 92.2424C268.446 92.8 272.111 93.0508 275.639 92.9992V93.0057C275.639 93.0057 274.606 102.413 266.885 102.301C266.885 102.301 268.32 99.76 267.772 98.1018C267.772 98.1018 266.118 101.969 259.832 100.642C259.832 100.642 259.978 100.509 260.223 100.27C260.229 100.264 260.229 100.264 260.229 100.264C261.504 99.0156 265.422 94.9293 264.695 92.2424Z" fill="#FF845A"/>
<path fill-rule="evenodd" clip-rule="evenodd" d="M342.534 46.5047L345.736 47.4003L344.544 45.0115L359.962 34.7947C360.061 34.9939 360.16 35.1931 360.259 35.3915C360.259 35.3915 360.259 35.3915 360.259 35.3981C360.24 35.8422 359.42 56.3165 354.999 67.9669L350.037 69.4594C350.037 69.4594 327.459 60.6885 321.79 59.4345L321.584 58.7977C321.584 58.7911 321.591 58.7911 321.597 58.7846L342.534 46.5047Z" fill="#F4AC38"/>
<path fill-rule="evenodd" clip-rule="evenodd" d="M352.32 77.5208L337.915 109.446L321.789 59.436C327.46 60.6901 350.036 69.4609 350.036 69.4609L352.32 77.5208Z" fill="#FFC962"/>
<path fill-rule="evenodd" clip-rule="evenodd" d="M325.959 30.5688C326.653 30.3166 327.579 31.1133 328.023 32.3535C328.474 33.5872 328.275 34.802 327.581 35.0535C326.886 35.3057 325.96 34.5032 325.51 33.2688C325.059 32.0278 325.264 30.8204 325.959 30.5688Z" fill="black"/>
<path fill-rule="evenodd" clip-rule="evenodd" d="M342.534 46.5045L332.669 43.7508L338.954 33.8L344.545 45.0113L345.735 47.4001L342.534 46.5045Z" fill="#FFC762"/>
<path fill-rule="evenodd" clip-rule="evenodd" d="M353.842 82.8952L358.97 79.9096L358.175 77.5208L380.64 86.7096L338.127 110.097L337.915 109.446L352.32 77.5208L353.842 82.8952Z" fill="#F4AC38"/>
<path fill-rule="evenodd" clip-rule="evenodd" d="M358.97 79.9096L353.842 82.8953L352.32 77.5208L350.037 69.4602L354.999 67.9678L358.175 77.5208L358.97 79.9096Z" fill="white"/>
<path fill-rule="evenodd" clip-rule="evenodd" d="M354.999 67.9678C359.419 56.3174 360.24 35.8438 360.259 35.3989C368.867 52.828 380.639 86.7097 380.639 86.7097L358.174 77.5208L354.999 67.9678Z" fill="#FFC962"/>
<path fill-rule="evenodd" clip-rule="evenodd" d="M210.07 11.4198C228.313 14.4236 246.331 20.6072 261.53 31.3452C262.098 31.7465 261.556 32.693 260.981 32.2866C246.525 22.0742 229.537 16.0273 212.213 12.8991C211.402 12.7523 210.592 12.6047 209.78 12.4717C209.382 12.4063 209.319 12.0326 209.461 11.7469C209.566 11.5361 209.779 11.3718 210.07 11.4198Z" fill="#231F20"/>
<path fill-rule="evenodd" clip-rule="evenodd" d="M245.03 38.1025C235.477 32.6698 225.405 29.5046 214.37 29.4537C213.669 29.4508 213.669 28.3604 214.37 28.3633C225.585 28.4156 235.869 31.6397 245.579 37.1618C246.188 37.5078 245.64 38.45 245.03 38.1025Z" fill="#231F20"/>
<path fill-rule="evenodd" clip-rule="evenodd" d="M228.772 54.2084C235.282 62.0611 245.602 65.1587 255.456 65.68C256.153 65.717 256.157 66.8075 255.456 66.7704C245.718 66.255 235.51 63.273 228.793 55.8637C228.528 55.5715 228.258 55.2858 228.004 54.9797C227.932 54.8932 227.901 54.8009 227.886 54.7086C227.806 54.2281 228.395 53.7548 228.772 54.2084Z" fill="#231F20"/>
<path fill-rule="evenodd" clip-rule="evenodd" d="M204.121 58.086C208.045 61.9033 213.308 64.1518 218.721 64.7109C219.412 64.7821 219.419 65.8733 218.721 65.8013C214.152 65.3295 209.717 63.7266 205.999 61.0455C205.073 60.3774 204.179 59.6606 203.353 58.8566C203.187 58.6945 203.167 58.504 203.223 58.3361C203.337 57.9966 203.784 57.7582 204.121 58.086Z" fill="#231F20"/>
<path fill-rule="evenodd" clip-rule="evenodd" d="M205.815 69.5766C208.248 70.5086 210.8 70.9767 213.404 71.0109C214.104 71.0204 214.106 72.1108 213.404 72.1014C211.749 72.0795 210.107 71.8913 208.501 71.5263C207.492 71.2973 206.498 71 205.526 70.6278C205.088 70.4599 205.08 69.9299 205.322 69.6776C205.436 69.5577 205.603 69.4952 205.815 69.5766Z" fill="#231F20"/>
</svg>

<svg width="489" height="138" fill="none" xmlns="http://www.w3.org/2000/svg"><path fill-rule="evenodd" clip-rule="evenodd" d="M28.161 104.46l162.714-31.186s9.281-5.675 0-16.767c-9.28-11.091-36.69 0-36.69 0s-4.351-21.918-42.605-23.47c-38.254-1.55-61.454 20.89-47.534 28.63 0 0-39.85-6.932-58 15.942-18.15 22.874 9.122 29.341 22.115 26.851zm294.001 33l162.713-31.187s9.281-5.675 0-16.766c-9.28-11.092-36.69 0-36.69 0s-4.351-21.918-42.605-23.47c-38.254-1.55-61.454 20.89-47.534 28.629 0 0-39.85-6.931-58 15.943-18.151 22.874 9.121 29.342 22.116 26.851z" fill="#A378F8" fill-opacity=".27"/><path d="M195.04 61.83l10.959-.785c3.718 2.681 8.153 4.284 12.722 4.756.698.072.691-1.019 0-1.09-5.413-.56-10.676-2.808-14.599-6.625-.337-.328-.785-.09-.899.25-2.011-1.835-4.202-4.394-4.379-6.955 0 0 21.34 6.137 29.775 4.645l.172-.162c6.719 7.41 16.927 10.392 26.663 10.907.701.037.698-1.053 0-1.09-9.853-.522-20.174-3.62-26.683-11.472-.377-.454-.966.019-.888.5-.44-.626-.589-1.005-.589-1.005s-12.572-3.895-15.054-7.212c-2.481-3.317 5.295-3.9 5.295-3.9s-4.136-1.991-9.099-3.981c-4.963-1.99 5.294-9.952 5.294-9.952s-8.933-.331-9.76-2.156c-.827-1.825 7.444-6.137 7.444-6.137s-15.384-2.322-13.564-5.308c1.772-2.908 13.739-2.197 14.361-2.158 17.325 3.128 34.312 9.175 48.769 19.387.575.407 1.118-.54.549-.941-15.199-10.738-33.216-16.92-51.46-19.925-.291-.048-.504.116-.609.326-17.751-7.56-13.264-10.124-13.264-10.124 9.092-6.694 42.361 8.75 62.245 20.182 3.269 1.878 6.18 3.65 8.556 5.195 14.544 9.454 23.158 14.928 23.158 14.928 1.489.159 2.806.232 3.976.219.193.006.384 0 .569-.007 6.988-.232 8.973-3.788 14.809-11.908 6.617-9.202 12.075-8.041 12.075-8.041 9.264 0 17.37 11.61 17.37 11.61l-6.286 9.951s-4.95 6.27-11.071 15.034l-.013.007v.006c-3.382 4.83-7.12 10.416-10.588 16.135-7.318 12.061-20.128 17.88-35.36 18.066-3.527.052-7.192-.198-10.944-.757a80.828 80.828 0 01-4.976-.889 146.073 146.073 0 01-6.366-1.494c-16.747-4.365-21.258-9.287-21.258-9.287s-7.776-3.152-15.55-.166c-7.774 2.985-8.436 4.645-8.271 1.99.159-2.574 2.958-4.678 3.136-4.802-.271.145-8.297 4.51-10.083 5.558-1.721 1.01 1.885-8.864 7.175-11.627 1.606.364 3.248.553 4.903.575.702.01.7-1.08 0-1.09a21.93 21.93 0 01-7.589-1.435.43.43 0 00-.494.102c-3.801-1.537-9.047-4.245-10.279-7.847zm50.539-24.669c-9.71-5.521-19.994-8.746-31.208-8.799-.702-.002-.702 1.088 0 1.091 11.034.052 21.106 3.217 30.66 8.649.609.348 1.157-.594.548-.941zm79.93-3.892c.45 1.234 1.376 2.037 2.071 1.785.694-.253.893-1.467.443-2.7-.443-1.241-1.37-2.037-2.065-1.785-.694.251-.899 1.459-.449 2.7z" fill="#536FE8"/><path fill-rule="evenodd" clip-rule="evenodd" d="M264.694 92.243c.728 2.687-3.189 6.773-4.466 8.021l-.006.007c-.139.078-2.058 1.187-5.247-.511 0 0 3.03-1.66 2.176-3.981 0 0-4.929 2.991-10.666 1.493 0 0 6.908-3.822 6.869-7.41 1.951.504 4.069 1.007 6.365 1.493 1.673.35 3.334.648 4.975.888z" fill="#FFC762"/><path fill-rule="evenodd" clip-rule="evenodd" d="M259.149 15.383c.861-.432 1.675-.545 1.675-.545s-2.429-2.216-2.647-4.644c-.225-2.435 6.174-.664 6.174-.664s-12.909-16.4 3.971-5.97c20.208 12.479 25.118 34.91 25.739 38.187-7.446-4.51-25.377-15.895-34.912-26.364z" fill="#295FC5"/><path fill-rule="evenodd" clip-rule="evenodd" d="M266.997 27c-2.376-1.546-5.287-3.318-8.556-5.195-2.514-3.895-.827-5.66.709-6.422 9.534 10.469 27.466 21.854 34.91 26.365.045.226.066.359.073.398-1.17.014-2.488-.06-3.976-.219-.002 0-8.617-5.473-23.16-14.927z" fill="#403882"/><path fill-rule="evenodd" clip-rule="evenodd" d="M264.695 92.242c3.751.558 7.416.809 10.944.757v.007s-1.033 9.407-8.754 9.295c0 0 1.435-2.541.887-4.2 0 0-1.654 3.868-7.94 2.541 0 0 .146-.133.391-.372l.006-.006c1.275-1.248 5.193-5.335 4.466-8.022z" fill="#FF845A"/><path fill-rule="evenodd" clip-rule="evenodd" d="M342.534 46.505l3.202.895-1.192-2.389 15.418-10.216.297.596v.007c-.019.444-.839 20.918-5.26 32.569l-4.962 1.492s-22.578-8.77-28.247-10.025l-.206-.636c0-.007.007-.007.013-.013l20.937-12.28z" fill="#F4AC38"/><path fill-rule="evenodd" clip-rule="evenodd" d="M352.32 77.52l-14.405 31.926-16.126-50.01c5.671 1.254 28.247 10.025 28.247 10.025l2.284 8.06z" fill="#FFC962"/><path fill-rule="evenodd" clip-rule="evenodd" d="M325.959 30.569c.694-.252 1.62.544 2.064 1.784.451 1.234.252 2.449-.442 2.7-.695.253-1.621-.55-2.071-1.784-.451-1.241-.246-2.449.449-2.7z" fill="#000"/><path fill-rule="evenodd" clip-rule="evenodd" d="M342.534 46.505l-9.865-2.754 6.285-9.951 5.591 11.211 1.19 2.39-3.201-.897z" fill="#FFC762"/><path fill-rule="evenodd" clip-rule="evenodd" d="M353.842 82.895l5.128-2.985-.795-2.39 22.465 9.19-42.513 23.387-.212-.651 14.405-31.925 1.522 5.374z" fill="#F4AC38"/><path fill-rule="evenodd" clip-rule="evenodd" d="M358.97 79.91l-5.128 2.985-1.522-5.374-2.283-8.06 4.962-1.493 3.176 9.553.795 2.389z" fill="#fff"/><path fill-rule="evenodd" clip-rule="evenodd" d="M354.999 67.968c4.42-11.65 5.241-32.124 5.26-32.57 8.608 17.43 20.38 51.312 20.38 51.312l-22.465-9.19-3.175-9.552z" fill="#FFC962"/><path fill-rule="evenodd" clip-rule="evenodd" d="M210.07 11.42c18.243 3.004 36.261 9.187 51.46 19.925.568.402.026 1.348-.549.942-14.456-10.213-31.444-16.26-48.768-19.388-.811-.147-1.621-.294-2.433-.427-.398-.066-.461-.44-.319-.725.105-.21.318-.375.609-.327zm34.96 26.682c-9.553-5.432-19.625-8.597-30.66-8.648-.701-.003-.701-1.094 0-1.09 11.215.052 21.499 3.276 31.209 8.798.609.346.061 1.288-.549.94zm-16.258 16.106c6.51 7.853 16.83 10.95 26.684 11.472.697.037.701 1.127 0 1.09-9.738-.515-19.946-3.497-26.663-10.906-.265-.292-.535-.578-.789-.884a.543.543 0 01-.118-.271c-.08-.48.509-.954.886-.5zm-24.651 3.878c3.924 3.817 9.187 6.066 14.6 6.625.691.071.698 1.162 0 1.09-4.569-.472-9.004-2.074-12.722-4.756a23.366 23.366 0 01-2.646-2.188.482.482 0 01-.13-.52c.114-.34.561-.579.898-.251zm1.694 11.491c2.433.932 4.985 1.4 7.589 1.434.7.01.702 1.1 0 1.09a23.51 23.51 0 01-4.903-.575 21.812 21.812 0 01-2.975-.898c-.438-.168-.446-.698-.204-.95a.428.428 0 01.493-.101z" fill="#231F20"/></svg>
